!!!COM: Barber, Samuel
!!!CDT: 1910///-1981///
!!!OPR: String Quartet, Op. 11, Mvmt. 2
!!!OTL: Adagio for Strings
!!!ODT: 1936///
**kern	**dynam	**kern	**dynam	**kern	**dynam	**kern	**dynam
*staff1	*staff1	*staff1	*staff1	*staff1	*staff1	*staff1	*staff1
*Icello	*Icello	*Iviola	*Iviola	*Ivioln	*Ivioln	*Ivioln	*Ivioln
*clefF4	*clefF4	*clefC3	*clefC3	*clefG2	*clefG2	*clefG2	*clefG2
*k[b-e-a-d-g-]	*k[b-e-a-d-g-]	*k[b-e-a-d-g-]	*k[b-e-a-d-g-]	*k[b-e-a-d-g-]	*k[b-e-a-d-g-]	*k[b-e-a-d-g-]	*k[b-e-a-d-g-]
*M4/2	*M4/2	*M4/2	*M4/2	*M4/2	*M4/2	*M4/2	*M4/2
*MM104	*MM104	*MM104	*MM104	*MM104	*MM104	*MM104	*MM104
=1-	=1-	=1-	=1-	=1-	=1-	=1-	=1-
2r	.	2r	.	2r	.	([0b-	pp
2r	.	2r	.	2r	.	.	.
1EE-	pp	1d-	pp	1B- 1g-	pp	.	.
=2	=2	=2	=2	=2	=2	=2	=2
*	*	*	*	*^	*	*	*
[0FF	.	[0c	.	[0f	[0An	.	4b-\]	.
.	.	.	.	.	.	.	4an/	.
.	.	.	.	.	.	.	4b-\	.
.	.	.	.	.	.	.	4cc\	.
.	.	.	.	.	.	.	4a/	.
.	.	.	.	.	.	.	4b-\	.
.	.	.	.	.	.	.	4cc\	.
.	.	.	.	.	.	.	4b-\	<
=3	=3	=3	=3	=3	=3	=3	=3	=3
2FF/]	.	2c\]	.	1f_	2A\]	.	4cc\	.
.	.	.	.	.	.	.	4dd-\	.
1.GG-	<	1.B-	<	.	2r	.	4b-\	.
.	.	.	.	.	.	.	4cc\	.
.	.	.	.	4f/]	1r	<	4dd-\	.
.	.	.	.	(2e-/	.	.	4cc\	.
.	.	.	.	.	.	.	4dd-\	.
.	.	.	.	4d-/)	.	.	4ee-\	.
*	*	*	*	*v	*v	*	*	*
=4	=4	=4	=4	=4	=4	=4	=4
*M5/2	*M5/2	*M5/2	*M5/2	*M5/2	*M5/2	*M5/2	*M5/2
1.AA-	p	1.c	p	1.e-	p	1.cc)	.
2r	.	2r	.	2r	.	(1cc	.
2FF/ 2D-/	p	2d-\	p	2c/ 2a-/	p	.	.
=5	=5	=5	=5	=5	=5	=5	=5
*M4/2	*M4/2	*M4/2	*M4/2	*M4/2	*M4/2	*M4/2	*M4/2
0GG- 0D-	.	[0d-	.	[0B- [0g-	.	[1b-	>
.	.	.	.	.	.	4b-\])	.
.	.	.	.	.	.	(4b-\	.
.	.	.	.	.	.	4cc\	.
.	.	.	.	.	.	4dd-\	.
=6	=6	=6	=6	=6	=6	=6	=6
[0EE-	.	0d-_	.	0B-_ 0g-_	.	4b-\	.
.	.	.	.	.	.	4a-/	.
.	.	.	.	.	.	4g-/	.
.	.	.	.	.	.	4f/	.
.	.	.	.	.	.	4e-/	.
.	.	.	.	.	.	4d-/	.
.	.	.	.	.	.	4c/	.
.	.	.	.	.	.	4d-/	.
=7	=7	=7	=7	=7	=7	=7	=7
0EE-]	.	1d-]	.	0B-] 0g-]	.	4e-/	<
.	.	.	.	.	.	4f/	.
.	.	.	.	.	.	4g-/	.
.	.	.	.	.	.	4a-/	.
.	.	1c	.	.	.	4b-\	>
.	.	.	.	.	.	4a-/	.
.	.	.	.	.	.	4f/	.
.	.	.	.	.	.	4g-/	.
=8	=8	=8	=8	=8	=8	=8	=8
1FF 1C	.	1c	.	1An 1f	.	1f)	>
2r	.	2r	.	2r	.	([1b-	pp
2EE-/	<	2d-\	<	2B-/ 2g-/	.	.	.
=9	=9	=9	=9	=9	=9	=9	=9
[0FF	.	[0c	.	[0An [0f	.	4b-\]	.
.	.	.	.	.	.	4an/	.
.	.	.	.	.	.	4b-\	.
.	.	.	.	.	.	4cc\	.
.	.	.	.	.	.	4a/	.
.	.	.	.	.	.	4b-\	.
.	.	.	.	.	.	4cc\	.
.	.	.	.	.	.	4b-\	.
=10	=10	=10	=10	=10	=10	=10	=10
*	*	*	*	*^	*	*	*
2FF/]	.	2c\]	.	1f_	2A\]	.	4cc\	.
.	.	.	.	.	.	.	4dd-\	.
1.GG-	.	1.B-	.	.	2r	.	4b-\	.
.	.	.	.	.	.	.	4cc\	.
.	.	.	.	4f/]	1r	.	4dd-\	.
.	.	.	.	(2e-/	.	.	4cc\	.
.	.	.	.	.	.	.	4dd-\	.
.	.	.	.	4d-/)	.	.	4ee-\	.
*	*	*	*	*v	*v	*	*	*
=11	=11	=11	=11	=11	=11	=11	=11
[0AA-	.	0c	.	1e-	.	4cc\	<
.	.	.	.	.	.	&(4gg-\&)	.
.	.	.	.	.	.	1.gg-	.
.	.	.	.	(4c/	p	.	.
.	.	.	.	&(4cc\&)	<	.	.
.	.	.	.	2cc\	.	.	.
=12	=12	=12	=12	=12	=12	=12	=12
*^	*	*	*	*	*	*	*
[0F	0AA-_	.	[0e-	pp	2cc\	.	1.ff	.
.	.	.	.	.	&(1cc-&))	.	.	.
.	.	.	.	.	2r	.	2ccc-\	mf
=13	=13	=13	=13	=13	=13	=13	=13	=13
2F/]	1AA-]	.	4e-\]	.	1r	.	[1bb-	.
.	.	.	4dn\	.	.	.	.	.
2r	.	.	4e-\	.	.	.	.	.
.	.	.	4f\	.	.	.	.	.
1r	1GG-	.	4d\	<	1r	.	4bb-\])	.
.	.	.	4e-\	.	.	.	(4b-\	p
.	.	.	4f\	.	.	.	4dd-\	.
.	.	.	4e-\	.	.	.	4ccn\	.
*v	*v	*	*	*	*	*	*	*
=14	=14	=14	=14	=14	=14	=14	=14
1FF	.	4f\	mf	2r	.	2.a-/	.
.	.	4g-\	<	.	.	.	.
.	.	4e-\	.	2r	.	.	.
.	.	4f\	.	.	.	4a-/	.
1EE-	.	4g-\	.	(2e-/	p	2b-\	.
.	.	4f\	.	.	.	.	.
.	.	4g-\	.	2A-/)	.	2cc\	.
.	.	4a-\	.	.	.	.	.
=15	=15	=15	=15	=15	=15	=15	=15
*M6/2	*M6/2	*M6/2	*M6/2	*M6/2	*M6/2	*M6/2	*M6/2
1.DD-	.	0f	.	(1.A-	mf	2.dd-\	mf
.	.	.	.	.	.	4cc\	>
.	.	.	.	.	.	4b-\	.
.	.	.	.	.	.	4cc\	.
1.GG-	.	.	.	2B-/)	.	2.b-\)	.
.	.	(1f	>	2r	.	.	.
.	.	.	.	.	.	(4b-\	.
.	.	.	.	2r	.	4a-/	.
.	.	.	.	.	.	4b-\	.
=16	=16	=16	=16	=16	=16	=16	=16
*M4/2	*M4/2	*M4/2	*M4/2	*M4/2	*M4/2	*M4/2	*M4/2
*	*	*^	*	*	*	*	*
1C-	.	[1e-	[1G-	.	1r	.	4cc-\	.
.	.	.	.	.	.	.	4b-\	.
.	.	.	.	.	.	.	4a-/	.
.	.	.	.	.	.	.	4g-/	.
1EE-	.	4e-/])	1G-]	.	1r	.	2b-\	.
.	.	(4e-/	.	.	.	.	.	.
.	.	4f/	.	.	.	.	4a-/	.
.	.	4g-/	.	.	.	.	4b-\	.
*	*	*v	*v	*	*	*	*	*
=17	=17	=17	=17	=17	=17	=17	=17
1AA-	.	4e-\	.	(2c/	p	2.a-/	.
.	.	4d-\	.	.	.	.	.
.	.	4c\	.	1e-	.	.	.
.	.	4B-/	.	.	.	4g-/	.
1DD-	.	4A-/	.	.	.	4f/	.
.	.	4G-/	.	.	.	4g-/	.
.	.	4F/	.	[2d-/	.	2a-/	.
.	.	4G-/	.	.	.	.	.
=18	=18	=18	=18	=18	=18	=18	=18
0EE-	.	4A-/	.	2d-/]	.	[1g-	<
.	.	4B-/	.	.	.	.	.
.	.	4c\	.	4c/	.	.	.
.	.	4d-\	.	&(4B-/&)	.	.	.
.	.	4e-\	.	2B-/	.	4g-/]	.
.	.	4d-\	.	.	.	4g-/	.
.	.	4B-/	.	2e-/	.	4b-\	>
.	.	4c\	.	.	.	4a-/	.
=19	=19	=19	=19	=19	=19	=19	=19
1BB-	.	1B-)	.	1d-)	.	1f)	.
2r	.	([1e-	mf	2r	.	2r	.
2EE-/	p	.	.	2B-/ 2g-/	p	(2b-\	p
=20	=20	=20	=20	=20	=20	=20	=20
*	*	*	*	*^	*	*	*
1FF	.	4e-\]	<	[1f	1An	.	2.an/	<
.	.	4d-\	.	.	.	.	.	.
.	.	4e-\	.	.	.	.	.	.
.	.	4f\	.	.	.	.	4a/	.
1GG-	.	4d-\	.	2f/]	1r	.	1b-	.
.	.	4e-\	.	.	.	.	.	.
.	.	4f\	.	2r	.	.	.	.
.	.	4e-\	.	.	.	.	.	.
*	*	*	*	*v	*v	*	*	*
=21	=21	=21	=21	=21	=21	=21	=21
1AA-	.	4f\	.	1r	.	2cc\	.
.	.	4g-\	.	.	.	.	.
.	.	4e-\	.	.	.	2ff\	.
.	.	4f\	.	.	.	.	.
1BB-	.	4g-\	.	1r	.	2dd-\	.
.	.	4f\	.	.	.	.	.
.	.	4g-\	.	.	.	4cc\	.
.	.	4a-\	.	.	.	4dd-\	.
=22	=22	=22	=22	=22	=22	=22	=22
2C-/	.	4f\	.	1r	.	[1ee-	mf
.	.	&(4cc-\&)	.	.	.	.	.
(4FF/	mf	1.cc-	.	.	.	.	.
4A-\)	.	.	.	.	.	.	.
[1A-	.	.	.	1r	.	4ee-\]	.
.	.	.	.	.	.	4ee-\	.
.	.	.	.	.	.	4ddn\	.
.	.	.	.	.	.	4ee-\	.
=23	=23	=23	=23	=23	=23	=23	=23
1A-]	.	1.b-	>	1r	.	[1ddn	.
1AA-	>	.	.	1r	.	2.dd\])	>
.	.	2f\	.	.	.	.	.
.	.	.	.	.	.	(4dd\	.
=24	=24	=24	=24	=24	=24	=24	=24
*^	*	*	*	*	*	*	*
[0F	1GGn	p	[1e-	p	1r	.	4gg-\	p
.	.	.	.	.	.	.	4ff\	.
.	.	.	.	.	.	.	4ee-\	.
.	.	.	.	.	.	.	4dd-\	.
.	1AA-	.	4e-\])	<	1r	.	2.cc-\	.
.	.	.	(4e-\	.	.	.	.	.
.	.	.	4g-\	>	.	.	.	.
.	.	.	4f\	.	.	.	4dd-\	.
=25	=25	=25	=25	=25	=25	=25	=25	=25
1F]	1BB-	.	2.d-\	.	1r	.	4b-\	.
.	.	.	.	.	.	.	4cc-\	.
.	.	.	.	.	.	.	4a-/	.
.	.	.	4d-\	.	.	.	4b-\	.
(2G-/	1AA-	.	2e-\	.	1r	.	4cc-\	.
.	.	.	.	.	.	.	4b-\	.
2A-/)	.	.	2f\	.	.	.	4cc-\	.
.	.	.	.	.	.	.	4dd-\	.
*v	*v	*	*	*	*	*	*	*
=26	=26	=26	=26	=26	=26	=26	=26
*M6/2	*M6/2	*M6/2	*M6/2	*M6/2	*M6/2	*M6/2	*M6/2
*	*	*^	*	*	*	*	*
1.EE- 1.BB-	.	1.G-	2.g-/	.	1.r	.	1.B- 1.b-)	.
.	.	.	4f/	.	.	.	.	.
.	.	.	4e-/	.	.	.	.	.
.	.	.	4f/	.	.	.	.	.
1.C- 1.G-	<	2.e-\)	1.r	.	1.r	.	4r	.
.	.	.	.	.	.	.	([4cc-\	mf
.	.	.	.	.	.	.	2cc-\]	.
.	.	(4e-\	.	<	.	.	.	.
.	.	4d-\	.	.	.	.	2b-\	.
.	.	4e-\	.	.	.	.	.	.
*	*	*v	*v	*	*	*	*	*
=27	=27	=27	=27	=27	=27	=27	=27
*M4/2	*M4/2	*M4/2	*M4/2	*M4/2	*M4/2	*M4/2	*M4/2
1FF- [1C-	.	4f-\	.	(1A-	>	[1a-	>
.	.	4e-\	.	.	.	.	.
.	.	4d-\	.	.	.	.	.
.	.	4c-\	.	.	.	.	.
2.C-/]	>	1e-	.	1c-	.	4a-/]	.
.	.	.	.	.	.	4g-/	.
.	.	.	.	.	.	4f/	.
4AA-/	.	.	.	.	.	4g-/	.
=28	=28	=28	=28	=28	=28	=28	=28
1BB-	.	2.dn\	>	2.B-/)	p	2.f/)	p
.	.	4cn\	.	4r	.	4r	.
*clefC4	*clefC4	*	*	*	*	*	*
([1B-	p	4B-/	.	2r	.	2r	.
.	.	4c\	.	.	.	.	.
.	.	2E-/ 2d-/	p	(2g-/	p	2r	.
=29	=29	=29	=29	=29	=29	=29	=29
*	*	*^	*	*	*	*	*
4B-\]	.	1c	0F	.	[0f	pp	0r	.
4An\	.	.	.	.	.	.	.	.
4B-\	.	.	.	.	.	.	.	.
4c\	.	.	.	.	.	.	.	.
4A\	<	4c/	.	pp	.	.	.	.
4B-\	.	4c/	.	.	.	.	.	.
4c\	.	4e-/	.	.	.	.	.	.
4B-\	.	4d-/	.	.	.	.	.	.
*	*	*v	*v	*	*	*	*	*
=30	=30	=30	=30	=30	=30	=30	=30
4c\	.	0G- 0B-	.	1f_	.	0r	.
4d-\	.	.	.	.	.	.	.
4B-\	.	.	.	.	.	.	.
4c\	.	.	.	.	.	.	.
4d-\	.	.	.	4f/]	.	.	.
4c\	.	.	.	2e-/	.	.	.
4d-\	.	.	.	.	.	.	.
4e-\	.	.	.	4d-/	.	.	.
=31	=31	=31	=31	=31	=31	=31	=31
*M5/2	*M5/2	*M5/2	*M5/2	*M5/2	*M5/2	*M5/2	*M5/2
1.c)	mf	1A-)	.	1e-	.	1.r	.
.	.	2r	.	1a-)	.	.	.
(1c	>	2r	.	.	.	1r	.
.	.	2F/	>	2d-/ 2a-/	>	.	.
=32	=32	=32	=32	=32	=32	=32	=32
*M4/2	*M4/2	*M4/2	*M4/2	*M4/2	*M4/2	*M4/2	*M4/2
*	*	*	*	*^	*	*	*
[1B-	p	0G-	pp	[0g-	[0d-	pp	0r	.
4B-\])	.	.	.	.	.	.	.	.
(4B-\	.	.	.	.	.	.	.	.
4c\	.	.	.	.	.	.	.	.
4d-\	.	.	.	.	.	.	.	.
=33	=33	=33	=33	=33	=33	=33	=33	=33
4B-\	.	([0E-	.	0g-_	(0d-_	.	0r	.
4A-\	.	.	.	.	.	.	.	.
4G-/	.	.	.	.	.	.	.	.
4F/	.	.	.	.	.	.	.	.
4E-/	<	.	.	.	.	.	.	.
4D-/	.	.	.	.	.	.	.	.
4C/	.	.	.	.	.	.	.	.
4D-/	.	.	.	.	.	.	.	.
=34	=34	=34	=34	=34	=34	=34	=34	=34
4E-/	.	0E-]	.	0g-]	&(1d-]&)) 1d- 1d-	.	0r	.
4F/	.	.	.	.	.	.	.	.
4G-/	.	.	.	.	.	.	.	.
4A-\	.	.	.	.	.	.	.	.
4B-\	>	.	.	.	2.c\	.	.	.
4A-\	.	.	.	.	.	.	.	.
4F/	.	.	.	.	.	.	.	.
4G-/	.	.	.	.	4B-\	.	.	.
=35	=35	=35	=35	=35	=35	=35	=35	=35
1F)	.	1F)	.	1f	1An	.	0r	.
([1B-	p	2r	.	2r	1r	.	.	.
.	.	2E-/ 2d-/	.	(2g-/	.	.	.	.
*	*	*	*	*v	*v	*	*	*
=36	=36	=36	=36	=36	=36	=36	=36
4B-\]	.	0F ([0c	.	[0f	.	0r	.
4An\	.	.	.	.	.	.	.
4B-\	.	.	.	.	.	.	.
4c\	.	.	.	.	.	.	.
4A\	.	.	.	.	.	.	.
4B-\	.	.	.	.	.	.	.
4c\	.	.	.	.	.	.	.
4B-\	.	.	.	.	.	.	.
=37	=37	=37	=37	=37	=37	=37	=37
*	*	*^	*	*	*	*	*
4c\	<	2c/]	&(0G-&)	.	1f_	.	0r	.
4d-\	.	.	.	.	.	.	.	.
4B-\	.	2d-/	.	.	.	.	.	.
4c\	.	.	.	.	.	.	.	.
4d-\	.	1B-)	.	<	4f/]	.	.	.
4c\	.	.	.	.	2e-/	<	.	.
4d-\	.	.	.	.	.	.	.	.
4e-\	.	.	.	.	4d-/	.	.	.
=38	=38	=38	=38	=38	=38	=38	=38	=38
4c\	.	1e-	[0A-	.	1c	.	1r	.
&(4g-\&)	.	.	.	.	.	.	.	.
1.g-	mf	.	.	.	.	.	.	.
.	.	2r	.	.	4c/	mf	1r	.
.	.	.	.	.	&(4cc\&)	.	.	.
.	.	2r	.	.	[2cc\	.	.	.
*	*	*v	*v	*	*	*	*	*
=39	=39	=39	=39	=39	=39	=39	=39
1f	.	0A-]	.	1cc]	.	(4e-/	mf
.	.	.	.	.	.	&(4ee-\&)	.
.	.	.	.	.	.	[1.ee-	.
*clefG2	*clefG2	*	*	*	*	*	*
1cc-	.	.	.	[1f	.	.	.
=40	=40	=40	=40	=40	=40	=40	=40
[1b-	.	1A-	<	1f])	.	4ee-\]	.
.	.	.	.	.	.	4ddn\	.
.	.	.	.	.	.	4ee-\	.
.	.	.	.	.	.	4ff\	.
4b-\])	.	1G-	.	1B-	<	4dd\	.
(4b-\	<	.	.	.	.	4ee-\	.
4dd-\	.	.	.	.	.	4ff\	<
4ccn\	.	.	.	.	.	4ee-\	.
=41	=41	=41	=41	=41	=41	=41	=41
2.a-/	.	1F	.	1c	.	4ff\	.
.	.	.	.	.	.	4gg-\	.
.	.	.	.	.	.	4ee-\	.
4a-/	.	.	.	.	.	4ff\	.
2b-\	.	1E-	.	2d-/	.	4gg-\	.
.	.	.	.	.	.	4ff\	.
2cc\	.	.	.	2e-/	.	4gg-\	.
.	.	.	.	.	.	4aa-\	.
=42	=42	=42	=42	=42	=42	=42	=42
[1dd-	f	0D-	f	0B- 0f	f	[0ff	f
4dd-\]	.	.	.	.	.	.	.
4cc\	.	.	.	.	.	.	.
4b-\	.	.	.	.	.	.	.
4cc\	.	.	.	.	.	.	.
=43	=43	=43	=43	=43	=43	=43	=43
*M3/2	*M3/2	*M3/2	*M3/2	*M3/2	*M3/2	*M3/2	*M3/2
2.b-\)	.	1.G-	.	1.d-	.	2ff\])	.
.	.	.	.	.	.	(1ff	.
(4b-\	.	.	.	.	.	.	.
4a-/	.	.	.	.	.	.	.
4b-\	.	.	.	.	.	.	.
=44	=44	=44	=44	=44	=44	=44	=44
*M4/2	*M4/2	*M4/2	*M4/2	*M4/2	*M4/2	*M4/2	*M4/2
4cc-\	.	[1g-	.	1c-	.	[1ee-	.
4b-\	.	.	.	.	.	.	.
4a-/	.	.	.	.	.	.	.
4g-/	.	.	.	.	.	.	.
1b-)	.	4g-\]	.	([1e-	f	4ee-\])	.
.	.	2ee-\	.	.	.	(4gg-\	.
.	.	.	.	.	.	4ff\	.
.	.	4ee-\	.	.	.	4gg-\	.
=45	=45	=45	=45	=45	=45	=45	=45
1an	<	1cc	.	4e-/]	.	1.ff)	.
.	.	.	.	4d-/	.	.	.
.	.	.	.	4e-/	.	.	.
.	.	.	.	4f/	.	.	.
*	*	*clefG2	*clefG2	*	*	*	*
1b-	.	[1ff	<	4d-/	.	.	.
.	.	.	.	4e-/	.	.	.
.	.	.	.	4f/	.	(2bb-\	.
.	.	.	.	4e-/	.	.	.
=46	=46	=46	=46	=46	=46	=46	=46
1cc	.	1ff]	.	4f/	.	1.aa-)	.
.	.	.	.	4g-/	.	.	.
.	.	.	.	4e-/	.	.	.
.	.	.	.	4f/	.	.	.
1dd-	.	([1b-	f	4g-/	.	.	.
.	.	.	.	4f/	.	.	.
.	.	.	.	4g-/	.	2ddd-\	.
.	.	.	.	4a-/	.	.	.
=47	=47	=47	=47	=47	=47	=47	=47
*	*	*	*	*^	*	*	*
1f	.	4b-\]	.	2ff/)	4f\	.	(2ccc\	.
.	.	4an/	.	.	4r	.	.	.
.	.	4b-\	.	([2ccc\	2r	.	2fff\	.
.	.	4cc\	.	.	.	.	.	.
[1g-	.	4a/	.	2ccc/]	1dd-	.	2.ddd-\)	.
.	.	4b-\	.	.	.	.	.	.
.	.	4cc\	.	[2bb-/	.	.	.	.
.	.	4b-\	.	.	.	.	([4eee-\	.
*	*	*	*	*v	*v	*	*	*
=48	=48	=48	=48	=48	=48	=48	=48
1g-]	.	4cc\	.	1ee- 1bb-])	.	4eee-\]	.
.	.	4dd-\	.	.	.	4ddd-\	.
.	.	4b-\	.	.	.	4eee-\	.
.	.	4cc\	.	.	.	4fff\	.
1a-	.	4dd-\	.	1ff 1ccc	.	4ddd-\	.
.	.	4cc\	.	.	.	4eee-\	.
.	.	4dd-\	.	.	.	4fff\	.
.	.	4ee-\	.	.	.	4eee-\	.
=49	=49	=49	=49	=49	=49	=49	=49
1.b-	.	2cc\)	.	2aa-\ (2ccc\	.	4fff\	.
.	.	.	.	.	.	4ggg-\	.
.	.	2ff\	.	2bb-\)	.	4eee-\	.
.	.	.	.	.	.	4fff\	.
.	.	2dd-\	<	2gg-\ 2ddd-\	<	4ggg-\	<
.	.	.	.	.	.	4fff\	.
2cc\	<	2ee-\	.	2bb-\ 2eee-\	.	4ggg-\	.
.	.	.	.	.	.	4aaa-\	.
=50	=50	=50	=50	=50	=50	=50	=50
*	*	*	*	*	*	*^	*
1dd-	ff	1ff	ff	1fff	ff	[0bbb-)	1bb-	ff
[1gg-	.	[1ddd-	.	[1ggg-	.	.	2r	.
.	.	.	.	.	.	.	2r	.
*	*	*	*	*	*	*v	*v	*
=51	=51	=51	=51	=51	=51	=51	=51
1gg-]	.	1ddd-]	.	1ggg-]	.	1bbb-]	.
1ee-	.	1gg-	.	1ggg-	.	1ccc- 1bbb-	.
=52	=52	=52	=52	=52	=52	=52	=52
[0ff-	ff	[0aa-	ff	[0fff-	ff	[0ccc- [0aaa-	ff
=53	=53	=53	=53	=53	=53	=53	=53
1ff-;]	.	1aa-;]	.	1fff-;]	.	1ccc-;] 1aaa-;]	.
*clefF4	*clefF4	*clefC3	*clefC3	*	*	*	*
2r	.	2r	.	2r	.	2r	.
(2EE-/ 2C-/	pp	(2G-/ 2c-/	pp	(2e-/ 2g-/	pp	2B-/ (2b-/	pp
=54	=54	=54	=54	=54	=54	=54	=54
1.FF-) 1.C-	.	1.F-) 1.c-	.	1.A-) 1.f-	.	1.a-)	.
(2CC#/ 2AAn/	.	(2En/ 2An/	.	(2G#/ 2en/	.	2c#/ (2g#/	.
=55	=55	=55	=55	=55	=55	=55	=55
1.DDn 1.AAn	.	1.F# 1.An	.	1.An 1.dn	.	1.f#	.
2BBn/ 2Dn/	.	2F#/ 2Bn/	.	2d/ 2f#/	.	2bn\	.
=56	=56	=56	=56	=56	=56	=56	=56
1CCn 1GGn	.	1En	.	0c)	.	1Gn 1en	.
1FFn)	.	1Fn)	.	.	.	1An 1fn)	.
=57	=57	=57	=57	=57	=57	=57	=57
2r	.	2r	.	2r	.	2r	.
2r	.	2r	.	2r	.	2r	.
2r	.	([1B-	mf	2r	.	([1b-	mf
2EE-/ 2BB-/	p	.	.	2d-/ 2g-/	p	.	.
=58	=58	=58	=58	=58	=58	=58	=58
*	*	*	*	*^	*	*	*
([0FF [0C	.	4B-/]	.	([0f	[0c	.	4b-\]	.
.	.	4An/	.	.	.	.	4an/	.
.	.	4B-/	.	.	.	.	4b-\	.
.	.	4c\	.	.	.	.	4cc\	.
.	.	4A/	.	.	.	.	4a/	.
.	.	4B-/	.	.	.	.	4b-\	.
.	.	4c\	.	.	.	.	4cc\	.
.	.	4B-/	.	.	.	.	4b-\	.
=59	=59	=59	=59	=59	=59	=59	=59	=59
2FF/] 2C/]	<	4c\	<	1f_	2c\]	<	4cc\	<
.	.	4d-\	.	.	.	.	4dd-\	.
1.GG- 1.D-	.	4B-/	.	.	[2B-\	.	4b-\	.
.	.	4c\	.	.	.	.	4cc\	.
.	.	4d-\	.	4f/]	1B-]	.	4dd-\	.
.	.	4c\	.	2e-/	.	.	4cc\	.
.	.	4d-\	.	.	.	.	4dd-\	.
.	.	4e-\	.	4d-/	.	.	4ee-\	.
*	*	*	*	*v	*v	*	*	*
=60	=60	=60	=60	=60	=60	=60	=60
*M5/2	*M5/2	*M5/2	*M5/2	*M5/2	*M5/2	*M5/2	*M5/2
1.AA-) 1.E-	.	1.c)	.	1.c 1.e-)	.	1.cc)	.
2r	.	(1c	>	2r	.	(1cc	>
2FF/ 2D-/	>	.	.	2d-/ 2a-/	>	.	.
=61	=61	=61	=61	=61	=61	=61	=61
*M4/2	*M4/2	*M4/2	*M4/2	*M4/2	*M4/2	*M4/2	*M4/2
*	*	*	*	*^	*	*	*
0GG- 0D-	.	[1B-	.	0g-	0d-	.	[1b-	.
.	.	4B-/])	.	.	.	.	4b-\])	.
.	.	(4d-\	.	.	.	.	(4dd-\	<
.	.	4c\	.	.	.	.	4cc\	.
.	.	4B-/	.	.	.	.	4b-\	.
=62	=62	=62	=62	=62	=62	=62	=62	=62
[0EE- [0BB-	.	4c\	.	([0g-	[0c	.	4cc\	.
.	.	4d-\	.	.	.	.	4dd-\	.
.	.	4e-\	.	.	.	.	4ee-\	.
.	.	4f\	.	.	.	.	4ff\	.
.	.	4g-\	.	.	.	.	4gg-\	.
.	.	4f\	.	.	.	.	4ff\	.
.	.	4e-\	.	.	.	.	4ee-\	.
.	.	4d-\	.	.	.	.	4dd-\	.
=63	=63	=63	=63	=63	=63	=63	=63	=63
0EE-] 0BB-]	.	4c\	>	0g-]	1.c]	.	4cc\	>
.	.	4B-/	.	.	.	.	4b-\	.
.	.	4A-/	.	.	.	.	4a-/	.
.	.	4G-/	.	.	.	.	4g-/	.
.	.	4B-/	.	.	.	.	4b-\	.
.	.	4A-/	.	.	.	.	4a-/	.
.	.	4F/	.	.	2B-\	.	4f/	.
.	.	4G-/	.	.	.	.	4g-/	.
*	*	*	*	*v	*v	*	*	*
=64	=64	=64	=64	=64	=64	=64	=64
1FF	.	1F)	.	1An 1f)	.	1f)	.
2r	.	([1B-	p	2r	.	([1b-	p
2EE-/ 2BB-/	p	.	.	2d-/ 2g-/	p	.	.
=65	=65	=65	=65	=65	=65	=65	=65
[0FF [0C	.	4B-/]	.	[0c [0f	.	4b-\]	.
.	.	4An/	.	.	.	4an/	.
.	.	4B-/	.	.	.	4b-\	.
.	.	4c\	.	.	.	4cc\	.
.	.	[1A	.	.	.	[1a	.
=66	=66	=66	=66	=66	=66	=66	=66
1FF] 1C]	.	1A])	.	1c] 1f]	.	2.a/])	.
.	.	.	.	.	.	4r	.
2r	.	2r	.	2r	.	([1B-	mf
2EE-/ 2BB-/	pp	2d-\	pp	2g-/	pp	.	.
=67	=67	=67	=67	=67	=67	=67	=67
[0FF [0C	.	[0c	.	[0f	.	2B-/]	.
.	.	.	.	.	.	2An/	.
.	.	.	.	.	.	2B-/	.
.	.	.	.	.	.	2c/	>
=68	=68	=68	=68	=68	=68	=68	=68
0FF] 0C]	.	0c]	.	0f]	.	[0An	.
=69	=69	=69	=69	=69	=69	=69	=69
0FF; 0C;	.	0c;	.	0f;	.	0A;])	pp
==	==	==	==	==	==	==	==
*-	*-	*-	*-	*-	*-	*-	*-
!!!END: 2005/04/17/
